svg/u1f99b.svg

<svg viewBox="0 0 128 128" xmlns="http://www.w3.org/2000/svg">
  <linearGradient id="SVGID_1_" gradientTransform="matrix(1 0 0 -1 0 -2176)" gradientUnits="userSpaceOnUse" x1="65.3786" x2="65.3786" y1="-2267.1399" y2="-2296.8545">
    <stop offset="0.33" stop-color="#97715C"/>
    <stop offset="0.48" stop-color="#A47D66"/>
    <stop offset="0.72" stop-color="#B48C72"/>
    <stop offset="0.9" stop-color="#BA9176"/>
  </linearGradient>
  <path d="M75.4,91.2l-15.5,1.7c0,0,0.2,13.9,0,16.3c-0.4,4.2-6.5,7.3-3.9,10.1c1.9,2.2,11,2.1,14-0.2 c2.92-2.1,4.72-5.41,4.9-9C74.8,104.6,75.4,90.5,75.4,91.2z" fill="url(#SVGID_1_)"/>
  <linearGradient id="SVGID_2_" gradientTransform="matrix(1 0 0 -1 0 -2176)" gradientUnits="userSpaceOnUse" x1="98.8989" x2="100.0789" y1="-2256.6499" y2="-2283.22">
    <stop offset="0.17" stop-color="#97715C"/>
    <stop offset="0.26" stop-color="#A07962"/>
    <stop offset="0.54" stop-color="#B38B71"/>
    <stop offset="0.73" stop-color="#BA9176"/>
  </linearGradient>
  <path d="M99.1,88.5c0,0,0.3,8.7-0.6,10.8c-1.8,4.2-12,6.1-14.9,2.2c-2.2-2.8,1.3-3.9,1.7-6.1 s0.4-10,0.4-10l30-5.6c0,0,0.8,14.8,0.6,17.5s-1.1,8.3-7.2,9.3s-8.6-0.7-8.7-1.7c-0.3-2,2.5-3.4,2.7-5.1S103,86.4,103,86.4 L99.1,88.5z" fill="url(#SVGID_2_)"/>
  <linearGradient id="SVGID_3_" gradientTransform="matrix(1 0 0 -1 0 -2176)" gradientUnits="userSpaceOnUse" x1="46.4123" x2="47.5722" y1="-2267.7979" y2="-2293.6753">
    <stop offset="0.17" stop-color="#97715C"/>
    <stop offset="0.26" stop-color="#A07962"/>
    <stop offset="0.54" stop-color="#B38B71"/>
    <stop offset="0.73" stop-color="#BA9176"/>
  </linearGradient>
  <path d="M41.9,92c0,0,1.5,11.4,0.1,14.6s-4.3,7.6-3,9.2c2.4,2.8,9,2.4,12.4,0.3s3.2-3.8,3.5-5.6 s-0.1-8.3-0.1-10.8s0.4-7.5,0.4-7.5L41.9,92z" fill="url(#SVGID_3_)"/>
  <path d="M60.4,115.8c-1.8-2.1-6.4,1.7-4,3.7C58.3,121.2,61.8,117.5,60.4,115.8z" fill="#835A4A"/>
  <path d="M64.8,116.5c-2.5-0.6-5.4,3.8-2.2,4.2S66.9,117,64.8,116.5z" fill="#835A4A"/>
  <path d="M46.9,113.1c-2.3-0.6-5,3.6-2.2,4.6C47.7,118.8,49.8,113.8,46.9,113.1z" fill="#835A4A"/>
  <path d="M42,112.1c-2-0.7-5.2,2.8-2.5,4.4C41.9,118.1,44.8,113.1,42,112.1z" fill="#835A4A"/>
  <path d="M86.7,98.4c2.2,0.9,0.4,6.1-2.3,4.2C82.2,101.2,84.5,97.6,86.7,98.4z" fill="#835A4A"/>
  <path d="M91.7,99.3c2.1,0.4,0.7,5.1-2,4.7S89.1,98.8,91.7,99.3z" fill="#835A4A"/>
  <path d="M103.3,102.4c-1.4-1-4.2,2.5-2.5,3.7S105.1,103.6,103.3,102.4z" fill="#835A4A"/>
  <path d="M107,103.4c-2-0.3-4.6,3.2-2.2,3.8S109.4,103.8,107,103.4z" fill="#835A4A"/>
  <linearGradient id="SVGID_4_" gradientTransform="matrix(1 0 0 -1 0 -2176)" gradientUnits="userSpaceOnUse" x1="81.3612" x2="80.6612" y1="-2216.1599" y2="-2271.9099">
    <stop offset="0.27" stop-color="#855A4A"/>
    <stop offset="0.43" stop-color="#956C5A"/>
    <stop offset="0.64" stop-color="#AD8671"/>
    <stop offset="0.75" stop-color="#B18873"/>
    <stop offset="0.85" stop-color="#BB8D7A"/>
    <stop offset="0.95" stop-color="#CE9686"/>
    <stop offset="1" stop-color="#DA9C8E"/>
  </linearGradient>
  <path d="M57.2,49.9c0,0,19.6-15.9,37.3-11.5c19.8,5,21.5,24.2,24.2,24.2c2.2,0,2.1-2.9,3.5-2.4 s1.3,6.5-1.3,7.9c-0.96,0.49-2.02,0.73-3.1,0.7c0.12,2.54-0.02,5.09-0.4,7.6c-0.6,2.3-1.6,5.8-1.6,5.8c-2.64-0.2-5.27,0.46-7.5,1.9 c-4.7,3-5.8,7.8-18.8,11c-7.9,2-10.9,2.1-13.5,2c-2.8-0.1-4.7-2-8.5-1.7s-4.9,1.9-7.4,2c-2.86,0.09-5.7-0.35-8.4-1.3l-13-5 l15.2-40.5L57.2,49.9z" fill="url(#SVGID_4_)"/>
  <radialGradient id="SVGID_5_" cx="1097.688" cy="1240.126" gradientTransform="matrix(-0.12 0.99 1.73 0.21 -1952.97 -1282.13)" gradientUnits="userSpaceOnUse" r="25.09">
    <stop offset="0.51" stop-color="#AD8671" stop-opacity="0"/>
    <stop offset="0.65" stop-color="#B48975" stop-opacity="0.28"/>
    <stop offset="0.85" stop-color="#C79382" stop-opacity="0.7"/>
    <stop offset="1" stop-color="#DA9C8E"/>
  </radialGradient>
  <path d="M39.2,91c0,0,3.2,6.3,13,2.5s17.2-19.4,17.2-19.4l6.3-13.2l-25.8-4.1L39.2,91z" fill="url(#SVGID_5_)"/>
  <path d="M54.8,57.8c1.6-1.77,2.89-3.8,3.8-6c1.4-3.7,1.6-8.9-1.2-10.2c-6.9-3.2-9,6.4-9.3,6.4 s-3.2-2.1-5.6-2.4c-1.48-0.17-2.98-0.04-4.4,0.4c0,0,4.4-7.4-1.1-8.7c-5.3-1.2-6.1,8-6.1,8c-1.54,0.98-2.96,2.16-4.2,3.5 c-1.5,1.8-2.2,3.8-3.4,4.2s-6,0.6-7.3,5.2s1.2,8.6,0.1,11.7c-1.3,3.8-3,3.6-5.3,4.6c-6.2,2.5-6.8,5-7.2,9.7 C3.2,89.6,7,96.8,15.7,99.3s14.6-0.1,17.9-2.2c3-2,3.9-4.7,6-5.1c4.05-1,7.77-3.04,10.8-5.9c4.9-4.4,8.5-8.4,6.6-19 C56.54,63.94,55.81,60.83,54.8,57.8z" fill="#B89379"/>
  <radialGradient id="SVGID_6_" cx="-1499.1415" cy="1248.2665" gradientTransform="matrix(0.55 -0.83 0.58 0.39 134.15 -1668.34)" gradientUnits="userSpaceOnUse" r="38.98">
    <stop offset="0" stop-color="#845A4A"/>
    <stop offset="0.26" stop-color="#8B6352"/>
    <stop offset="0.68" stop-color="#A07D68"/>
    <stop offset="1" stop-color="#B2947C"/>
  </radialGradient>
  <path d="M34.8,41.3c-1.1,3.7-5.3,6.2-7.3,10.3s-2.4,8.9-3.9,12.4c-1.9,4.6-6.6,7.3-9.4,8.9 c-3.7,2.2-5.6,1.7-7.7,3.5c-3.3,2.8-2.7,5.7-2.7,5.7l29.5,3.7c0,0,2.3-1.8,2.1-3.2C34.8,78,29.2,71.2,31,65.8s6.4-8.8,11.6-10.4 c4.5-1.4,7.7-2.3,7.7-2.3c0.41-2.31,1.25-4.52,2.5-6.5c1.26-1.85,2.66-3.58,4.2-5.2c-1.7-0.81-3.7-0.7-5.3,0.3 c-1.6,1.1-3.3,4.9-3.8,6c-1.48-1.02-3.14-1.74-4.9-2.1c-1.66-0.27-3.36-0.2-5,0.2c0,0,4.7-7.7-1.4-8.8 C35.85,38.37,35.25,39.81,34.8,41.3z" fill="url(#SVGID_6_)"/>
  <radialGradient id="SVGID_7_" cx="982.5405" cy="-960.4694" gradientTransform="matrix(0.91 0.41 0.58 -1.29 -285.63 -1563.8601)" gradientUnits="userSpaceOnUse" r="7.34">
    <stop offset="0" stop-color="#DA9C8E"/>
    <stop offset="0.3" stop-color="#D69A8B" stop-opacity="0.7"/>
    <stop offset="0.6" stop-color="#CA9484" stop-opacity="0.4"/>
    <stop offset="0.89" stop-color="#B78B77" stop-opacity="0.11"/>
    <stop offset="1" stop-color="#AD8671" stop-opacity="0"/>
  </radialGradient>
  <path d="M53.9,63.8c-3.8-1.4-8.9,3.5-10.6,8.9s-1.5,11.1,3.2,12c3.9,0.7,7.9-3,9.9-7.4 S58.6,65.5,53.9,63.8z" fill="url(#SVGID_7_)"/>
  <path d="M41.5,78.8c0,0,4,1,4-0.7s-2.4-2.2-2.9-2.1S39.9,76.3,41.5,78.8z" fill="#0B0B0B"/>
  <path d="M36.4,89.8c1.22-1.81,2.23-3.76,3-5.8c0.7-2.8-0.3-5.6,0.6-7.2c0.86-1.22,2.52-1.57,3.8-0.8 c0.8,0.4-1.9,0.3-1.8,2.2s0.6,3.9-0.3,7.1c-0.96,3.15-2.8,5.96-5.3,8.1C35.2,94.3,36.4,89.8,36.4,89.8z" fill="#6B4433"/>
  <path d="M19,79.3c3.76-0.81,7.64-0.81,11.4,0c6,1.4,7.9,5.2,7.4,10.8c-0.3,3.4-4.9,7.9-12.2,7.4 s-10.2-5.1-10.2-5.1s-4.1,3.2-9.4-0.2c-2.5-1.6-3.3-5.8-2.7-9.3c0.4-2.7,1.4-3.9,2.3-4.6c2.34-2.02,5.55-2.7,8.5-1.8 C15.94,77.01,17.63,77.97,19,79.3z" fill="#845A4A"/>
  <path d="M22.8,85c-1,1.1-2,2.4-1,3.4s2.6-0.3,3.7-1.5s1.6-2.2,0.7-3.1S24.1,83.5,22.8,85z" fill="#0B0C0C"/>
  <path d="M13.2,82.6c-1.3-1.9-2.2-2.4-3.3-1.5s0.1,2.6,0.8,3.6s2.1,2.4,3.1,1.6C15.3,85,14.1,83.9,13.2,82.6z" fill="#0B0C0C"/>
  <path d="M44.2,66.5c0.1,2.8-1.6,4-3.5,4c-2.04-0.15-3.58-1.93-3.43-3.97c0.13-1.83,1.59-3.29,3.43-3.43 C42.6,63.08,44.17,64.6,44.2,66.5z" fill="#0B0C0C"/>
  <path d="M21.7,61.1c0,2.6-1.1,3.7-2.5,3.7s-2.4-1.5-2.4-3.4s1.1-3.4,2.4-3.4S21.6,59.2,21.7,61.1z" fill="#0B0C0C"/>
</svg>

<svg viewBox="0 0 128 128" xmlns="http://www.w3.org/2000/svg">
  <defs>
    <linearGradient id="SVGID_1_" gradientTransform="matrix(1 0 0 -1 0 0)" gradientUnits="userSpaceOnUse" x1="65.3786" x2="65.3786" y1="-91.1399" y2="-120.8545">
      <stop offset="0.33" stop-color="#97715C"/>
      <stop offset="0.48" stop-color="#A47D66"/>
      <stop offset="0.72" stop-color="#B48C72"/>
      <stop offset="0.9" stop-color="#BA9176"/>
    </linearGradient>
    <linearGradient id="SVGID_2_" gradientTransform="matrix(1 0 0 -1 0 0)" gradientUnits="userSpaceOnUse" x1="98.8989" x2="100.0789" y1="-80.6499" y2="-107.22">
      <stop offset="0.17" stop-color="#97715C"/>
      <stop offset="0.26" stop-color="#A07962"/>
      <stop offset="0.54" stop-color="#B38B71"/>
      <stop offset="0.73" stop-color="#BA9176"/>
    </linearGradient>
    <linearGradient id="SVGID_3_" gradientTransform="matrix(1 0 0 -1 0 0)" gradientUnits="userSpaceOnUse" x1="46.4123" x2="47.5722" y1="-91.7979" y2="-117.6753">
      <stop offset="0.17" stop-color="#97715C"/>
      <stop offset="0.26" stop-color="#A07962"/>
      <stop offset="0.54" stop-color="#B38B71"/>
      <stop offset="0.73" stop-color="#BA9176"/>
    </linearGradient>
    <linearGradient id="SVGID_4_" gradientTransform="matrix(1 0 0 -1 0 0)" gradientUnits="userSpaceOnUse" x1="81.3612" x2="80.6612" y1="-40.1599" y2="-95.9099">
      <stop offset="0.27" stop-color="#855A4A"/>
      <stop offset="0.43" stop-color="#956C5A"/>
      <stop offset="0.64" stop-color="#AD8671"/>
      <stop offset="0.75" stop-color="#B18873"/>
      <stop offset="0.85" stop-color="#BB8D7A"/>
      <stop offset="0.95" stop-color="#CE9686"/>
      <stop offset="1" stop-color="#DA9C8E"/>
    </linearGradient>
    <radialGradient id="SVGID_5_" cx="57.374288" cy="39.081118" gradientTransform="matrix(-0.12 0.99 1.73 0.21 0 0)" gradientUnits="userSpaceOnUse" r="25.09">
      <stop offset="0.51" stop-color="#AD8671" stop-opacity="0"/>
      <stop offset="0.65" stop-color="#B48975" stop-opacity="0.28"/>
      <stop offset="0.85" stop-color="#C79382" stop-opacity="0.7"/>
      <stop offset="1" stop-color="#DA9C8E"/>
    </radialGradient>
    <radialGradient id="SVGID_6_" cx="-33.477324" cy="89.705644" gradientTransform="matrix(0.55 -0.83 0.58 0.39 0 0)" gradientUnits="userSpaceOnUse" r="38.98">
      <stop offset="0" stop-color="#845A4A"/>
      <stop offset="0.26" stop-color="#8B6352"/>
      <stop offset="0.68" stop-color="#A07D68"/>
      <stop offset="1" stop-color="#B2947C"/>
    </radialGradient>
    <radialGradient id="SVGID_7_" cx="79.018818" cy="-35.340555" gradientTransform="matrix(0.91 0.41 0.58 -1.29 0 0)" gradientUnits="userSpaceOnUse" r="7.34">
      <stop offset="0" stop-color="#DA9C8E"/>
      <stop offset="0.3" stop-color="#D69A8B" stop-opacity="0.7"/>
      <stop offset="0.6" stop-color="#CA9484" stop-opacity="0.4"/>
      <stop offset="0.89" stop-color="#B78B77" stop-opacity="0.11"/>
      <stop offset="1" stop-color="#AD8671" stop-opacity="0"/>
    </radialGradient>
  </defs>
  <path d="M75.4,91.2 L59.9,92.9 C59.9,92.9 60.1,106.8 59.9,109.2 C59.5,113.4 53.4,116.5 56,119.3 C57.9,121.5 67,121.4 70,119.1 C72.92,117 74.72,113.69 74.9,110.1 C74.8,104.6 75.4,90.5 75.4,91.2 Z" fill="url(#SVGID_1_)"/>
  <path d="M99.1,88.5 C99.1,88.5 99.4,97.2 98.5,99.3 C96.7,103.5 86.5,105.4 83.6,101.5 C81.4,98.7 84.9,97.6 85.3,95.4 C85.7,93.2 85.7,85.4 85.7,85.4 L115.7,79.8 C115.7,79.8 116.5,94.6 116.3,97.3 C116.1,100 115.2,105.6 109.1,106.6 C103,107.6 100.5,105.9 100.4,104.9 C100.1,102.9 102.9,101.5 103.1,99.8 C103.3,98.1 103,86.4 103,86.4 L99.1,88.5 Z" fill="url(#SVGID_2_)"/>
  <path d="M41.9,92 C41.9,92 43.4,103.4 42,106.6 C40.6,109.8 37.7,114.2 39,115.8 C41.4,118.6 48,118.2 51.4,116.1 C54.8,114 54.6,112.3 54.9,110.5 C55.2,108.7 54.8,102.2 54.8,99.7 C54.8,97.2 55.2,92.2 55.2,92.2 L41.9,92 Z" fill="url(#SVGID_3_)"/>
  <path d="M60.4,115.8 C58.6,113.7 54,117.5 56.4,119.5 C58.3,121.2 61.8,117.5 60.4,115.8 Z" fill="#835A4A"/>
  <path d="M64.8,116.5 C62.3,115.9 59.4,120.3 62.6,120.7 C65.8,121.1 66.9,117 64.8,116.5 Z" fill="#835A4A"/>
  <path d="M46.9,113.1 C44.6,112.5 41.9,116.7 44.7,117.7 C47.7,118.8 49.8,113.8 46.9,113.1 Z" fill="#835A4A"/>
  <path d="M42,112.1 C40,111.4 36.8,114.9 39.5,116.5 C41.9,118.1 44.8,113.1 42,112.1 Z" fill="#835A4A"/>
  <path d="M86.7,98.4 C88.9,99.3 87.1,104.5 84.4,102.6 C82.2,101.2 84.5,97.6 86.7,98.4 Z" fill="#835A4A"/>
  <path d="M91.7,99.3 C93.8,99.7 92.4,104.4 89.7,104 C87,103.6 89.1,98.8 91.7,99.3 Z" fill="#835A4A"/>
  <path d="M103.3,102.4 C101.9,101.4 99.1,104.9 100.8,106.1 C102.5,107.3 105.1,103.6 103.3,102.4 Z" fill="#835A4A"/>
  <path d="M107,103.4 C105,103.1 102.4,106.6 104.8,107.2 C107.2,107.8 109.4,103.8 107,103.4 Z" fill="#835A4A"/>
  <path d="M57.2,49.9 C57.2,49.9 76.8,34 94.5,38.4 C114.3,43.4 116,62.6 118.7,62.6 C120.9,62.6 120.8,59.7 122.2,60.2 C123.6,60.7 123.5,66.7 120.9,68.1 C119.94,68.59 118.88,68.83 117.8,68.8 C117.92,71.34 117.78,73.89 117.4,76.4 C116.8,78.7 115.8,82.2 115.8,82.2 C113.16,82 110.53,82.66 108.3,84.1 C103.6,87.1 102.5,91.9 89.5,95.1 C81.6,97.1 78.6,97.2 76,97.1 C73.2,97 71.3,95.1 67.5,95.4 C63.7,95.7 62.6,97.3 60.1,97.4 C57.24,97.49 54.4,97.05 51.7,96.1 L38.7,91.1 L53.9,50.6 L57.2,49.9 Z" fill="url(#SVGID_4_)"/>
  <path d="M39.2,91 C39.2,91 42.4,97.3 52.2,93.5 C62,89.7 69.4,74.1 69.4,74.1 L75.7,60.9 L49.9,56.8 L39.2,91 Z" fill="url(#SVGID_5_)"/>
  <path d="M54.8,57.8 C56.4,56.03 57.69,54 58.6,51.8 C60,48.1 60.2,42.9 57.4,41.6 C50.5,38.4 48.4,48 48.1,48 C47.8,48 44.9,45.9 42.5,45.6 C41.02,45.43 39.52,45.56 38.1,46 C38.1,46 42.5,38.6 37,37.3 C31.7,36.1 30.9,45.3 30.9,45.3 C29.36,46.28 27.94,47.46 26.7,48.8 C25.2,50.6 24.5,52.6 23.3,53 C22.1,53.4 17.3,53.6 16,58.2 C14.7,62.8 17.2,66.8 16.1,69.9 C14.8,73.7 13.1,73.5 10.8,74.5 C4.6,77 4,79.5 3.6,84.2 C3.2,89.6 7,96.8 15.7,99.3 C24.4,101.8 30.3,99.2 33.6,97.1 C36.6,95.1 37.5,92.4 39.6,92 C43.65,91 47.37,88.96 50.4,86.1 C55.3,81.7 58.9,77.7 57,67.1 C56.54,63.94 55.81,60.83 54.8,57.8 Z" fill="#B89379"/>
  <path d="M34.8,41.3 C33.7,45 29.5,47.5 27.5,51.6 C25.5,55.7 25.1,60.5 23.6,64 C21.7,68.6 17,71.3 14.2,72.9 C10.5,75.1 8.6,74.6 6.5,76.4 C3.2,79.2 3.8,82.1 3.8,82.1 L33.3,85.8 C33.3,85.8 35.6,84 35.4,82.6 C34.8,78 29.2,71.2 31,65.8 C32.8,60.4 37.4,57 42.6,55.4 C47.1,54 50.3,53.1 50.3,53.1 C50.71,50.79 51.55,48.58 52.8,46.6 C54.06,44.75 55.46,43.02 57,41.4 C55.3,40.59 53.3,40.7 51.7,41.7 C50.1,42.8 48.4,46.6 47.9,47.7 C46.42,46.68 44.76,45.96 43,45.6 C41.34,45.33 39.64,45.4 38,45.8 C38,45.8 42.7,38.1 36.6,37 C35.85,38.37 35.25,39.81 34.8,41.3 Z" fill="url(#SVGID_6_)"/>
  <path d="M53.9,63.8 C50.1,62.4 45,67.3 43.3,72.7 C41.6,78.1 41.8,83.8 46.5,84.7 C50.4,85.4 54.4,81.7 56.4,77.3 C58.4,72.9 58.6,65.5 53.9,63.8 Z" fill="url(#SVGID_7_)"/>
  <path d="M41.5,78.8 C41.5,78.8 45.5,79.8 45.5,78.1 C45.5,76.4 43.1,75.9 42.6,76 C42.1,76.1 39.9,76.3 41.5,78.8 Z" fill="#0B0B0B"/>
  <path d="M36.4,89.8 C37.62,87.99 38.63,86.04 39.4,84 C40.1,81.2 39.1,78.4 40,76.8 C40.86,75.58 42.52,75.23 43.8,76 C44.6,76.4 41.9,76.3 42,78.2 C42.1,80.1 42.6,82.1 41.7,85.3 C40.74,88.45 38.9,91.26 36.4,93.4 C35.2,94.3 36.4,89.8 36.4,89.8 Z" fill="#6B4433"/>
  <path d="M19,79.3 C22.76,78.49 26.64,78.49 30.4,79.3 C36.4,80.7 38.3,84.5 37.8,90.1 C37.5,93.5 32.9,98 25.6,97.5 C18.3,97 15.4,92.4 15.4,92.4 C15.4,92.4 11.3,95.6 6,92.2 C3.5,90.6 2.7,86.4 3.3,82.9 C3.7,80.2 4.7,79 5.6,78.3 C7.94,76.28 11.15,75.6 14.1,76.5 C15.94,77.01 17.63,77.97 19,79.3 Z" fill="#845A4A"/>
  <path d="M22.8,85 C21.8,86.1 20.8,87.4 21.8,88.4 C22.8,89.4 24.4,88.1 25.5,86.9 C26.6,85.7 27.1,84.7 26.2,83.8 C25.3,82.9 24.1,83.5 22.8,85 Z" fill="#0B0C0C"/>
  <path d="M13.2,82.6 C11.9,80.7 11,80.2 9.9,81.1 C8.8,82 10,83.7 10.7,84.7 C11.4,85.7 12.8,87.1 13.8,86.3 C15.3,85 14.1,83.9 13.2,82.6 Z" fill="#0B0C0C"/>
  <path d="M44.2,66.5 C44.3,69.3 42.6,70.5 40.7,70.5 C38.66,70.35 37.12,68.57 37.27,66.53 C37.4,64.7 38.86,63.24 40.7,63.1 C42.6,63.08 44.17,64.6 44.2,66.5 Z" fill="#0B0C0C"/>
  <path d="M21.7,61.1 C21.7,63.7 20.6,64.8 19.2,64.8 C17.8,64.8 16.8,63.3 16.8,61.4 C16.8,59.5 17.9,58 19.2,58 C20.5,58 21.6,59.2 21.7,61.1 Z" fill="#0B0C0C"/>
</svg>
